usr/share/icons/biglinux-icons-material-dark/22/actions/view-media-visualization.svg

<svg xmlns="http://www.w3.org/2000/svg" viewBox="0 0 22 22">
<defs id="defs3051">
<style id="current-color-scheme" type="text/css">
.ColorScheme-Text{color:#dedede}
</style>
</defs>
<path d="M6 4v2H5v3H4v2H3v1h1v2h1v3h1v2h1v-3h1v-3h1v-1h2v1h1v1h1v1h1v2h1v-1h1v-2h1v-1h1v-1h1v-1h-1v-1h-1V9h-1V7h-1V6h-1v2h-1v1h-1v1h-1v1H9v-1H8V7H7V4z" class="ColorScheme-Text" style="fill:currentColor;fill-opacity:1;stroke:none"/>
</svg>

<svg xmlns="http://www.w3.org/2000/svg" viewBox="0 0 22 22">
  <defs id="defs3051">
    <style type="text/css" id="current-color-scheme">
      .ColorScheme-Text {
        color:#dedede;
      }
      </style>
  </defs>
 <path 
    style="fill:currentColor;fill-opacity:1;stroke:none" 
    d="M 6 4 L 6 6 L 5 6 L 5 9 L 4 9 L 4 11 L 3 11 L 3 12 L 4 12 L 4 14 L 5 14 L 5 17 L 6 17 L 6 19 L 7 19 L 7 16 L 8 16 L 8 13 L 9 13 L 9 12 L 11 12 L 11 13 L 12 13 L 12 14 L 13 14 L 13 15 L 14 15 L 14 17 L 15 17 L 15 16 L 16 16 L 16 14 L 17 14 L 17 13 L 18 13 L 18 12 L 19 12 L 19 11 L 18 11 L 18 10 L 17 10 L 17 9 L 16 9 L 16 7 L 15 7 L 15 6 L 14 6 L 14 8 L 13 8 L 13 9 L 12 9 L 12 10 L 11 10 L 11 11 L 9 11 L 9 10 L 8 10 L 8 7 L 7 7 L 7 4 L 6 4 z "
	class="ColorScheme-Text"
    />  
</svg>
